korla/panel/22/qbittorrent-tray.svg

<svg xmlns="http://www.w3.org/2000/svg" width="22" height="22" version="1">
 <defs>
  <style id="current-color-scheme" type="text/css">
   .ColorScheme-Text { color:#dfdfdf; } .ColorScheme-Highlight { color:#5294e2; }
  </style>
 </defs>
 <path style="fill:currentColor" class="ColorScheme-Text" d="m 13,3 a 1,1 0 0 0 -1,1 v 11 h 2 V 14.458984 C 14.607485,14.81219 15.297298,14.998156 16,15 18.209139,15 20,13.209139 20,11 20,8.790861 18.209139,7 16,7 15.29748,7.0013 14.607679,7.186556 14,7.539063 V 4 A 1,1 0 0 0 13,3 Z M 6.0000001,7 c -2.209139,0 -4,1.790861 -4,4 0,2.209139 1.790861,4 4,4 0.7025232,-0.0013 1.3923246,-0.188495 2,-0.541016 V 18 a 1,1 0 0 0 1,1 A 1,1 0 0 0 10,18 V 7 H 8.0000001 V 7.541016 C 7.3925149,7.18781 6.7027017,7.001855 6.0000001,7 Z m 0,2 c 1.1045695,0 2,0.895431 2,2 0,1.104569 -0.8954305,2 -2,2 -1.1045695,0 -2,-0.895431 -2,-2 0,-1.104569 0.8954305,-2 2,-2 z M 16,9 c 1.104569,0 2,0.895431 2,2 0,1.104569 -0.895431,2 -2,2 -1.104569,0 -2,-0.895431 -2,-2 0,-1.104569 0.895431,-2 2,-2 z"/>
</svg>

<svg xmlns="http://www.w3.org/2000/svg" width="22" height="22" version="1">
 <defs>
  <style id="current-color-scheme" type="text/css">
   .ColorScheme-Text { color:#dfdfdf; } .ColorScheme-Highlight { color:#4285f4; }
  </style>
 </defs>
 <path style="fill:currentColor" class="ColorScheme-Text" d="M 13 3 A 1 1 0 0 0 12 4 L 12 15 L 14 15 L 14 14.458984 C 14.607485 14.81219 15.297298 14.998156 16 15 C 18.209139 15 20 13.209139 20 11 C 20 8.790861 18.209139 7 16 7 C 15.29748 7.0013 14.607679 7.1865555 14 7.5390625 L 14 4 A 1 1 0 0 0 13 3 z M 16 9 C 17.104569 9 18 9.895431 18 11 C 18 12.104569 17.104569 13 16 13 C 14.895431 13 14 12.104569 14 11 C 14 9.895431 14.895431 9 16 9 z"/>
 <path style="fill:currentColor;opacity:0.3" class="ColorScheme-Text" d="M 6 7 C 3.790861 7 2 8.790861 2 11 C 2 13.209139 3.790861 15 6 15 C 6.7025232 14.9987 7.3923246 14.811505 8 14.458984 L 8 18 A 1 1 0 0 0 9 19 A 1 1 0 0 0 10 18 L 10 7 L 8 7 L 8 7.5410156 C 7.3925148 7.1878096 6.7027016 7.001855 6 7 z M 6 9 C 7.1045695 9 8 9.895431 8 11 C 8 12.104569 7.1045695 13 6 13 C 4.8954305 13 4 12.104569 4 11 C 4 9.895431 4.8954305 9 6 9 z"/>
</svg>
